svgs/sharp-solid/tilde.svg

<svg xmlns="http://www.w3.org/2000/svg" viewBox="0 0 448 512"><!--! Font Awesome Pro 6.6.0 by @fontawesome - https://fontawesome.com License - https://fontawesome.com/license (Commercial License) Copyright 2024 Fonticons, Inc. --><path d="M0 128l32 0 96 0 13.3 0 9.4 9.4L333.3 320l50.7 0 0-128 0-32 64 0 0 32 0 160 0 32-32 0-96 0-13.3 0-9.4-9.4L114.7 192 64 192l0 128 0 32L0 352l0-32L0 160l0-32z"/></svg>

<svg xmlns="http://www.w3.org/2000/svg" viewBox="0 0 448 512"><!--! Font Awesome Pro 6.4.0 by @fontawesome - https://fontawesome.com License - https://fontawesome.com/license (Commercial License) Copyright 2023 Fonticons, Inc. --><path d="M0 128H32h96 13.3l9.4 9.4L333.3 320H384V192 160h64v32V352v32H416 320 306.7l-9.4-9.4L114.7 192H64V320v32H0V320 160 128z"/></svg>
